X: 14
T: Daphne's Choice
R: reel
M: C
L: 1/16
Z: 2010,2014 John Chambers <jc:trillian.mit.edu>
B: John Johnson ed. "Twenty Four Country Dances", p.79 London 1766
K: Am
|: (ec).B.A (^GB)e2 (ac).B.A (^GB)e2 |  fdec   dB(^Ge) cAB^G A2A,2 :|
|: (ge)dc   (Bd)g2 (c'e).d.c  (Bd)g2 |  afge     fdBg  ecdB  c2C2  |
   (gf).e.d (^ce)a2 (fe).d.c  (Bd)g2 | (ec).B.A ^GBEd  caB^g a2A2 :|
% - - - - - - - - - - - - - - - - - - - - - - - - -
%%begintext align
%% Cast off 2 Cu .| cast up again .|. cross over
%% half figure hands 4 round at bottom :|.
%% Left hands across at top Right & Left :|:
%%endtext
% - - - - - - - - - - - - - - - - - - - - - - - - -
